icons/arrow-square-topleft.svg

<svg width="24" height="24" viewBox="0 0 24 24" fill="none" xmlns="http://www.w3.org/2000/svg">
<path fill-rule="evenodd" clip-rule="evenodd" d="M20.25 9C20.25 6.11421 17.8858 3.75 15 3.75L9 3.75C6.11421 3.75 3.75 6.11421 3.75 9L3.75 15C3.75 17.7858 6.21421 20.25 9 20.25L15 20.25C17.8858 20.25 20.25 17.8858 20.25 15L20.25 9ZM15 2.25C18.7142 2.25 21.75 5.28579 21.75 9L21.75 15C21.75 18.7142 18.7142 21.75 15 21.75L9 21.75C5.38579 21.75 2.25 18.6142 2.25 15L2.25 9C2.25 5.28579 5.28579 2.25 9 2.25L15 2.25Z" fill="black"/>
<path fill-rule="evenodd" clip-rule="evenodd" d="M15.1375 14.7004C14.8446 14.9933 14.3697 14.9933 14.0768 14.7004L9.40994 10.0335C9.11705 9.74058 9.11705 9.26571 9.40994 8.97282C9.70284 8.67992 10.1777 8.67992 10.4706 8.97282L15.1375 13.6397C15.4304 13.9326 15.4304 14.4075 15.1375 14.7004Z" fill="black"/>
<path fill-rule="evenodd" clip-rule="evenodd" d="M9.65747 14.2129C9.24326 14.2129 8.90747 13.8771 8.90747 13.4629L8.90747 9.92737C8.90747 9.23031 9.45539 8.68239 10.1524 8.68239L13.688 8.68239C14.1022 8.68239 14.438 9.01818 14.438 9.43239C14.438 9.8466 14.1022 10.1824 13.688 10.1824L10.4075 10.1824L10.4075 13.4629C10.4075 13.8771 10.0717 14.2129 9.65747 14.2129Z" fill="black"/>
</svg>

<svg xmlns="http://www.w3.org/2000/svg" fill="none" viewBox="0 0 24 24">
  <path fill="#000" fill-rule="evenodd" d="M20.25 9c0-2.886-2.364-5.25-5.25-5.25H9C6.114 3.75 3.75 6.114 3.75 9v6c0 2.786 2.464 5.25 5.25 5.25h6c2.886 0 5.25-2.364 5.25-5.25V9ZM15 2.25c3.714 0 6.75 3.036 6.75 6.75v6c0 3.714-3.036 6.75-6.75 6.75H9c-3.614 0-6.75-3.136-6.75-6.75V9c0-3.714 3.036-6.75 6.75-6.75h6Z" clip-rule="evenodd"/>
  <path fill="#000" fill-rule="evenodd" d="M15.137 14.7a.75.75 0 0 1-1.06 0L9.41 10.034a.75.75 0 0 1 1.06-1.061l4.667 4.667a.75.75 0 0 1 0 1.06Z" clip-rule="evenodd"/>
  <path fill="#000" fill-rule="evenodd" d="M9.657 14.213a.75.75 0 0 1-.75-.75V9.927c0-.697.548-1.245 1.245-1.245h3.536a.75.75 0 0 1 0 1.5h-3.28v3.28a.75.75 0 0 1-.75.75Z" clip-rule="evenodd"/>
</svg>
